X:1
T:Ave Maris Stella
T:Felice Anerio edit BMarble
T:Ave Maris Stella
T:Copyright © 2015 by The Choral Public Domain Library. Edition may be freely distributed, duplicated, performed or recorded.
T:Copyright © 2015 by The Choral Public Domain Library. Edition may be freely distributed, duplicated, performed or recorded.
T:Copyright © 2015 by The Choral Public Domain Library. Edition may be freely distributed, duplicated, performed or recorded.
T:Copyright © 2015 by The Choral Public Domain Library. Edition may be freely distributed, duplicated, performed or recorded.
T:Copyright © 2015 by The Choral Public Domain Library. Edition may be freely distributed, duplicated, performed or recorded.
C:Felice Anerio
C:edit BMarble
Z:Copyright © 2015 by The Choral Public Domain Library. Edition may be freely distributed, duplicated, performed or recorded.
%%score [ 1 2 3 4 ]
L:1/8
Q:1/2=72
M:2/2
K:C
V:1 treble nm="Soprano" snm="S."
V:2 treble nm="Alto" snm="A."
V:3 treble-8 transpose=-12 nm="Tenor" snm="T."
V:4 bass nm="Baritone" snm="Bar."
V:1
 D8 | (A8 | B8) | G8 | (A8 | c8) | B8 | c8 | d8 | c8 | B8 | A8 || z8 | A8 | A8 | (D8 | E8) | G8 | %18
w: 1.~A-|ve|_|Ma-|ris|_|Stel-|||||la,||De-|i|Ma-||ter|
 (F8 | E8) | D8 || z8 | F8 | E8 | G8 | A8 | A8 | D8 | E8 | F8 | (E8 | D8) | C8 || z8 | E8 | G8 | %36
w: al-||ma,||At-|que|sem-|per|vir-|go,|sem-|per|vir-||go,||Fe-|lix|
 E8 | F8 | E8- | E8 | D16 |] D8 | (A8 | B8) | G8 | A8 | c8 | B8 | c8 | d8 | c8 | B8 | A8 || z8 | %54
w: coe-|li|por-||ta.|4.~Mon-|stra|_|te|es-|se|ma-|||||trem||
 A8 | A8 | (D8 | E8) | G8 | (F8 | E8) | D8 || z8 | F8 | E8 | G8 | A8 | A8 | D8 | E8 | F8 | (E8 | %72
w: Su-|mat|per|_|te|pre-||ces,||Qui|pro|no-|bis|na-|tus,|no-|bis|na-|
 D8) | C8 || z8 | E8 | G8 | E8 | F8 | E8- | E8 | D16 |] %82
w: |tus||Tu-|lit|es-|se|tu-||us.|
V:2
 z8 | F8- | F4 D4 | E4 C4 | F4 A4- | (A2 G2 F2 E2 | D4) E4- | E4 C4 | F8 | E8 | (E6 D2) | ^C8 || %12
w: |1.~A-|* ve|Ma- ris|Stel- la,|_ _ _ _|* a-|* ve|Ma-|ris|Stel- *|la,|
 z8 | A4 G4 | F4 ^F4 | (G4 D4) | C8 | D4 B,4 | C4 D4 | G8 | F8 || z8 | z8 | z8 | z8 | F8 | D8 | %27
w: |De- i|Ma- ter|al- *|ma,|De- i|Ma- ter|al-|ma,|||||At-|que|
 G8 | C4 C4- | C4 D4 | D4 C4 | (C4 B,4) | C8 || E8 | G8 | E8 | ^C8 | D2 A,2 D4- | D4 ^C2 B,2 | %39
w: sem-|per, at-|* que|sem- per|vir- *|go,|Fe-|lix|coe-|li|por- * *||
 ^C8 | D16 |] z8 | F8- | F4 D4 | E4 C4 | F4 A4- | (A2 G2 F2 E2) | D4 E4- | E4 C4 | F8 | E8 | %51
w: |ta.||4.~Mon-|* stra|te es-|se ma-||trem, mon-|* stra|te\_es-|se|
 (E6 D2) | ^C8 || z8 | A4 G4 | F4 ^F4 | (G4 D4) | C8 | D4 B,4 | C4 D4 | G8 | F8 || z8 | z8 | z8 | %65
w: ma- *|trem||Su- mat|per te|pre- *|ces,|su- mat|per te|pre-|ces,||||
 z8 | F8 | D8 | G8 | C4 C4- | C4 D4 | D4 C4 | (C4 B,4) | C8 || E8 | G8 | E8 | ^C8 | D2 A,2 D4- | %79
w: |Qui|pro|no-|bis na-|* tus,|no- bis|na- *|tus|Tu-|lit|es-|se|tu- * *|
 D4 ^C2 B,2 | ^C8 | D16 |] %82
w: ||us.|
V:3
 z8 | z4 d4- | d4 B4 | c4 e4 | c8 | A8 | ^G8 | A8 | B8 | c4 A4- | (A4 ^G4) | A8 || z8 | z8 | %14
w: |1.~A-|* ve|Ma- ris|Stel-|la,|a-|ve|Ma-|ris Stel-||la,|||
 d4 c4 | B4 A4 | G8 | G4 d2 d2 | c4 A4 | (_B4 A4) | A8 || A8 | F8 | (G4 c4-) | c4 _B4 | A8 | F8 | %27
w: De- i|Ma- ter|al-|ma, De- i|Ma- ter|al- *|ma,|At-|que|sem- *|* per|vir-|go,|
 z4 G4- | G4 E4 | A4 G4 | G8- | G8 | E8 || z4 c4- | c4 G4 | _B8- | B4 (A2 G2) | F4 (E2 D2) | A8- | %39
w: at-|* que|sem- per|vir-||go,|Fe-|* lix|coe-|* li. _|coe- li _|por-|
 A8 | A16 |] z8 | z4 d4- | d4 B4 | (c4 e4) | c8 | A8 | ^G8 | A8 | B8 | c4 A4- | A4 ^G4 | A8 || z8 | %54
w: |ta.||4.~Mon-|* stra|te _|es-|se|ma-|||trem, ma-||trem||
 z8 | d4 c4 | B4 A4 | G8 | G4 d2 d2 | c4 A4 | (_B4 A4) | A8 || A8 | F8 | (G4 c4-) | c4 _B4 | A8 | %67
w: |Su- mat|per te|pre-|ces, su- mat|per te|pre- *|ces,|Qui|pro|no- *|* bis|na-|
 F8 | z4 G4- | G4 E4 | A4 G4 | G8- | G8 | E8 || z4 c4- | c4 G4 | _B8- | B4 (A2 G2) | F4 (E2 D2) | %79
w: tus,|qui|_ pro|no- bis|na-||tus|Tu-|* lit|es-|* se, _|es- se _|
 A8- | A8 | A16 |] %82
w: tu-||us.|
V:4
 z8 | D,8 | G,,8 | C,8 | A,,8 | F,,4 F,4- | F,4 E,2 D,2 | C,4 A,,4- | A,,4 ^G,,4 | %9
w: |1.~A-|ve|Ma-|ris|Stel- *||la, Ma-|* ris|
 (A,,2 B,,2 C,2 D,2 | E,8) | A,,8 || A,4 G,4 | F,4 E,4 | D,8 | (G,4 F,4) | E,4 C,4 | B,,4 G,,4 | %18
w: Stel- * * *||la,|De- i|Ma- ter|al-|ma, _|De- i|Ma- ter|
 A,,4 D,4- | D,4 ^C,4 | D,8 || z8 | D,8 | C,8 | E,8 | F,4 D,4- | D,4 C,4 | (B,,2 A,,2 B,,2 G,,2) | %28
w: al- *||ma,||At-|que|sem-|per vir-|* go,|at- * * *|
 C,8 | A,,4 B,,4 | (C,2 D,2 E,2 F,2 | G,8) | C,8 || z8 | z4 C,4- | C,4 G,,4 | A,,8 | A,,8 | A,,8- | %39
w: que|sem- per|vir- * * *||go,||Fe-|* lix|coe-|li|por-|
 A,,8 | D,16 |] z8 | D,8 | G,,8 | C,8 | A,,8 | F,,4 F,4- | (F,4 E,2 D,2) | C,4 A,,4- | A,,4 ^G,,4 | %50
w: |ta.||4.~Mon-|stra|te|es-|se ma-||trem, es-|* se|
 (A,,2 B,,2 C,2 D,2 | E,8) | A,,8 || A,4 G,4 | F,4 E,4 | D,8 | (G,4 F,4) | E,4 C,4 | B,,4 G,,4 | %59
w: ma- * * *||trem|Su- mat|per te|pre-|ces, _|su- mat|per te|
 A,,4 D,4- | D,4 ^C,4 | D,8 || z8 | D,8 | C,8 | E,8 | F,4 D,4- | D,4 C,4 | (B,,2 A,,2 B,,2 G,,2) | %69
w: pre- *||ces,||Qui|pro|no-|bis na-|* tus,|qui _ _ _|
 C,8 | A,,4 B,,4 | (C,2 D,2 E,2 F,2 | G,8) | C,8 || z8 | z4 C,4- | C,4 G,,4 | A,,8 | A,,8 | A,,8- | %80
w: pro|no- bis|na- * * *||tus||Tu-|* lit|es-|se|tu-|
 A,,8 | D,16 |] %82
w: |us.|

